icons/svg/apple.svg

﻿<?xml version="1.0" encoding="utf-8"?>
<!DOCTYPE svg PUBLIC "-//W3C//DTD SVG 1.1//EN" "http://www.w3.org/Graphics/SVG/1.1/DTD/svg11.dtd">
<svg xmlns="http://www.w3.org/2000/svg" xmlns:xlink="http://www.w3.org/1999/xlink" version="1.1" baseProfile="full" width="24" height="24" viewBox="0 0 24.00 24.00" enable-background="new 0 0 24.00 24.00" xml:space="preserve">
	<path fill="#000000" fill-opacity="1" stroke-width="0.2" stroke-linejoin="round" d="M 18.707,19.5181C 17.8758,20.7374 17.016,21.9492 15.6585,21.9746C 14.3225,22 13.8942,21.1808 12.3697,21.1808C 10.8436,21.1808 10.3662,21.9492 9.10479,22C 7.79426,22.0492 6.79775,20.6831 5.9597,19.4693C 4.24759,16.9875 2.94084,12.452 4.69828,9.39118C 5.56856,7.87111 7.128,6.90935 8.81789,6.88396C 10.1049,6.8602 11.3207,7.75435 12.1068,7.75435C 12.8941,7.75435 14.3698,6.68082 15.9212,6.83828C 16.5706,6.86519 18.3932,7.10077 19.5637,8.81887C 19.4712,8.87986 17.3882,10.0955 17.4136,12.6281C 17.4391,15.6534 20.0564,16.659 20.0868,16.6727C 20.0631,16.7438 19.6684,18.1083 18.707,19.5181 Z M 13.0073,3.51493C 13.7258,2.67036 14.9398,2.04217 15.9417,1.99996C 16.0697,3.17311 15.5992,4.34788 14.9043,5.1944C 14.208,6.0394 13.0682,6.69764 11.9496,6.60975C 11.7976,5.46199 12.3614,4.26497 13.0073,3.51493 Z "/>
</svg>

<svg xmlns="http://www.w3.org/2000/svg" version="1.1" baseProfile="full" width="24" height="24" viewBox="0 0 24.00 24.00" xml:space="preserve"><path fill="#000" fill-opacity="1" stroke-width=".2" stroke-linejoin="round" d="M18.707 19.518c-.83 1.22-1.69 2.43-3.05 2.457-1.335.025-1.763-.794-3.287-.794-1.526 0-2.004.77-3.265.82-1.31.05-2.307-1.317-3.145-2.53-1.712-2.482-3.02-7.018-1.262-10.08.87-1.52 2.43-2.48 4.12-2.506 1.287-.024 2.503.87 3.29.87.786 0 2.262-1.073 3.813-.916.65.027 2.473.263 3.644 1.98-.093.062-2.176 1.277-2.15 3.81.025 3.025 2.642 4.03 2.673 4.045-.024.07-.42 1.435-1.38 2.845zm-5.7-16.003c.72-.845 1.933-1.473 2.935-1.515.128 1.173-.343 2.348-1.038 3.194-.696.845-1.836 1.504-2.954 1.416-.152-1.148.41-2.345 1.057-3.095z"/></svg>
